X:237
T:Dawg's Due
C:Bela Fleck
N:Tabledited by Mike Stangeland
L:1/8
Q:1/4=240
M:4/4
K:G
z6 G,B, |: "G"DG Bd g2 gb | gd cB G4 | Bd Bd "Gbm7"^A^c Ac | "Am"Ac AF "D"D2 G,B, | 
"G"DG Bd g2 gb | gd cB G4 | Bd Bd "Gbm7"^A^c Ac |1 A"D"c AF "G"G2 G,B, :|2 A"D"c AF "G"G2 (3GAA | 
|: "D"AB AF DD DG | "G"zB dG D2 (3GAA | "D"Ac AF D2 Bd | "G"BG z2 G2 (3GAA | "D"AB AF DD DG | 
"G"zB dG D2 D^D | "E"E2 EF ^GE FG | "Am"A^G AB cB cB | "D"df ed Bc BD |1 F"D"B AF "G"G2 (3GAA :|2 F"D"B AF "G"G4 | 
 

